X:1
T:Hugh Gillespie's
L:1/8
M:3/4
I:linebreak $
K:G
V:1 treble 
V:1
|: D>G B2 B2 | G>B d2 d2 | e>d c2 c>e | d>c B2 B2 | D>G B2 BA | G>B d2 d2 | e>d c>B c>A | %7
 F>D G2 G2 ::$ B>d g2 g2 | f>e d2 d2 | e>d c2 c>e | d>c B2 B2 | B>d g2 g2 | f>e d2 d2 | %14
 e>d c>B c>A | F>D G2 G2 :| %16
